assets/si/si-teamcity.svg

<svg xmlns="http://www.w3.org/2000/svg" width="100%" height="100%" viewBox="-3.36 -3.36 30.72 30.72"><path d="m0 0v24h24v-24zm2.664 2.964h7.48v1.832h-2.748v7.196h-1.984v-7.196h-2.748zm9.328 18h-9v-1.5h9zm5.56391-9.21826a4.62 4.62 0 0 1 -2.03591.37426 4.556 4.556 0 0 1 -4.628-4.616v-.024a4.584 4.584 0 0 1 4.708-4.668 4.65561 4.65561 0 0 1 3.56 1.388l-1.264 1.456a3.33594 3.33594 0 0 0 -2.312-1.02 2.67116 2.67116 0 0 0 -2.616 2.8v.028a2.68058 2.68058 0 0 0 2.616 2.836 3.22606 3.22606 0 0 0 2.376-1.056l1.264 1.276a4.61947 4.61947 0 0 1 -1.66809 1.22573z"/></svg>

<svg xmlns="http://www.w3.org/2000/svg" width="100%" height="100%" viewBox="-3.36 -3.36 30.72 30.72"><path d="M0 0v24h24V0zm2.664 2.964h7.48v1.832H7.396v7.196H5.412V4.796H2.664zm9.328 18h-9v-1.5h9zm5.564-9.218a4.62 4.62 0 01-2.036.374 4.556 4.556 0 01-4.628-4.616V7.48A4.584 4.584 0 0115.6 2.812 4.656 4.656 0 0119.16 4.2l-1.264 1.456a3.336 3.336 0 00-2.312-1.02 2.671 2.671 0 00-2.616 2.8v.028a2.68 2.68 0 002.616 2.836 3.226 3.226 0 002.376-1.056l1.264 1.276a4.62 4.62 0 01-1.668 1.226z"/></svg>
